public/images/socials/2gragient.svg

<svg width="62" height="62" viewBox="0 0 62 62" fill="none" xmlns="http://www.w3.org/2000/svg">
<path d="M11.4 1H1V12.3043" stroke="url(#paint0_linear_33_152)"/>
<path d="M61 12.3043L61 1L50.6 1" stroke="url(#paint1_linear_33_152)"/>
<path d="M50.6 61L61 61L61 49.6957" stroke="url(#paint2_linear_33_152)"/>
<path d="M1 49.6957L1 61L11.4 61" stroke="url(#paint3_linear_33_152)"/>
<path d="M30.522 36.7373L29.8456 37.4701C29.7934 37.5266 29.7448 37.58 29.6987 37.6307C29.6114 37.7266 29.533 37.8127 29.4563 37.8914L29.4532 37.8946L29.4532 37.8946C28.9462 38.4061 28.4392 38.9181 27.932 39.4302C26.7457 40.628 25.5586 41.8267 24.3687 43.0229L24.3685 43.0231C24.0639 43.329 23.9023 43.6103 23.8862 43.9545L23.8862 43.9558C23.8593 44.4988 24.2011 45.0783 24.7754 45.3611C25.0406 45.4901 25.2857 45.5239 25.5081 45.4855C25.7311 45.447 25.9686 45.3292 26.2062 45.0934L26.2063 45.0933C27.5381 43.772 28.8579 42.4462 30.1558 41.1001L30.1558 41.1001C30.2425 41.0102 30.341 40.9147 30.4486 40.8384C30.5587 40.7605 30.7065 40.6823 30.8902 40.6654C31.2737 40.6302 31.5582 40.8767 31.7515 41.0803L31.7516 41.0804C32.5973 41.9713 33.4617 42.8372 34.3314 43.7083C34.7618 44.1394 35.1935 44.5718 35.6249 45.0092C35.9163 45.3032 36.1893 45.4603 36.5107 45.4834C37.0522 45.5202 37.6549 45.1615 37.9289 44.5737C38.1583 44.0802 38.085 43.5675 37.642 43.1153L30.522 36.7373ZM30.522 36.7373L29.5301 36.6336M30.522 36.7373L29.5301 36.6336M29.5301 36.6336C27.2697 36.3974 25.2925 35.8423 23.6132 34.5197L23.3039 34.9124L23.6136 34.5199C23.5631 34.4801 23.5145 34.4423 23.4676 34.4057C23.2918 34.2687 23.1398 34.1503 23.0004 34.0151L22.9996 34.0143M29.5301 36.6336L22.9996 34.0143M22.9996 34.0143C22.672 33.6981 22.5307 33.3979 22.5046 33.123C22.4785 32.8476 22.5613 32.5244 22.8216 32.1498L22.8216 32.1498M22.9996 34.0143L22.8216 32.1498M22.8216 32.1498L22.8222 32.1489M22.8216 32.1498L22.8222 32.1489M22.8222 32.1489C23.0206 31.8622 23.2707 31.699 23.5421 31.6374C23.8173 31.575 24.1547 31.6083 24.5321 31.7881L24.5321 31.7881M22.8222 32.1489L24.5321 31.7881M24.5321 31.7881L24.5359 31.7898M24.5321 31.7881L24.5359 31.7898M24.5359 31.7898C24.6764 31.8553 24.8185 31.9441 24.9744 32.0513C28.4627 34.4642 33.2519 34.5336 36.7607 32.1579L36.7737 32.1491M24.5359 31.7898L36.7737 32.1491M36.7737 32.1491L36.7861 32.1395M36.7737 32.1491L36.7861 32.1395M36.7861 32.1395C37.0868 31.9072 37.3785 31.7407 37.6987 31.6579C38.2857 31.5068 38.8017 31.7144 39.1118 32.224L39.1123 32.2248M36.7861 32.1395L39.1123 32.2248M39.1123 32.2248C39.3197 32.5641 39.3991 32.8627 39.3887 33.1121C39.3786 33.3525 39.2839 33.5896 39.061 33.8191L39.06 33.8202M39.1123 32.2248L39.06 33.8202M39.06 33.8202C38.1959 34.7154 37.1498 35.3677 35.9743 35.8266L35.9742 35.8267M39.06 33.8202L35.9742 35.8267M35.9742 35.8267C34.8668 36.2593 33.6384 36.4824 32.3914 36.6314L31.4299 36.7463M35.9742 35.8267L31.4299 36.7463M31.4299 36.7463L32.0802 37.4637M31.4299 36.7463L32.0802 37.4637M32.0802 37.4637C32.1132 37.5001 32.1435 37.5336 32.1717 37.5648C32.3017 37.7086 32.3887 37.8048 32.4946 37.9121L32.4948 37.9123M32.0802 37.4637L32.4948 37.9123M32.4948 37.9123C33.1135 38.5381 33.7328 39.1627 34.352 39.7871M32.4948 37.9123L34.352 39.7871M34.352 39.7871C35.4505 40.8951 36.5486 42.0026 37.6419 43.1152L34.352 39.7871Z" fill="url(#paint4_linear_33_152)" stroke="url(#paint4_linear_33_152)"/>
<path d="M35.1298 23.5838C35.1325 23.0334 35.0266 22.4879 34.8182 21.9785C34.6094 21.4679 34.3017 21.0037 33.9129 20.6125C33.5241 20.2213 33.0618 19.9108 32.5525 19.6988C32.0434 19.4869 31.4974 19.3777 30.9459 19.3774L35.1298 23.5838ZM35.1298 23.5838C35.1363 24.1342 35.0339 24.6805 34.8285 25.1913C34.6227 25.7034 34.3174 26.1696 33.9303 26.563C33.5433 26.9565 33.0821 27.2693 32.5734 27.4835C32.0652 27.6976 31.5195 27.8089 30.968 27.811C30.4165 27.8152 29.8697 27.7103 29.3588 27.5024C28.8477 27.2943 28.3828 26.9873 27.9909 26.5988C27.599 26.2104 27.2877 25.7483 27.0751 25.239C26.863 24.7311 26.7532 24.1862 26.752 23.6358C26.743 23.0805 26.8445 22.529 27.0505 22.0133C27.257 21.4963 27.5645 21.0257 27.9549 20.6289C28.3453 20.2321 28.8109 19.917 29.3245 19.7022C29.8379 19.4873 30.3891 19.3769 30.9456 19.3774L35.1298 23.5838ZM30.8867 30.6854C27.0472 30.6713 23.8882 27.4622 23.9093 23.5783L23.9093 23.5781C23.9319 19.6476 27.0934 16.4902 30.9743 16.5C34.8573 16.5099 37.9892 19.7112 37.971 23.6888C37.9499 27.5588 34.7751 30.6981 30.8867 30.6854Z" fill="url(#paint5_linear_33_152)" stroke="url(#paint5_linear_33_152)"/>


<defs>
<linearGradient id="paint0_linear_33_152" x1="0.572603" y1="5.79304" x2="11.9133" y2="5.84691" gradientUnits="userSpaceOnUse">
<stop stop-color="#56C0E5"/>
<stop offset="0.494791" stop-color="#B977E6"/>
<stop offset="1" stop-color="#E55C5E"/>
</linearGradient>
<linearGradient id="paint1_linear_33_152" x1="56.5904" y1="0.535438" x2="56.5212" y2="12.8621" gradientUnits="userSpaceOnUse">
<stop stop-color="#56C0E5"/>
<stop offset="0.494791" stop-color="#B977E6"/>
<stop offset="1" stop-color="#E55C5E"/>
</linearGradient>
<linearGradient id="paint2_linear_33_152" x1="61.4274" y1="56.207" x2="50.0867" y2="56.1531" gradientUnits="userSpaceOnUse">
<stop stop-color="#56C0E5"/>
<stop offset="0.494791" stop-color="#B977E6"/>
<stop offset="1" stop-color="#E55C5E"/>
</linearGradient>
<linearGradient id="paint3_linear_33_152" x1="5.4096" y1="61.4646" x2="5.47878" y2="49.1379" gradientUnits="userSpaceOnUse">
<stop stop-color="#56C0E5"/>
<stop offset="0.494791" stop-color="#B977E6"/>
<stop offset="1" stop-color="#E55C5E"/>
</linearGradient>
<linearGradient id="paint4_linear_33_152" x1="28.8174" y1="28.72" x2="33.6639" y2="28.7237" gradientUnits="userSpaceOnUse">
<stop stop-color="#56C0E5"/>
<stop offset="0.494791" stop-color="#B977E6"/>
<stop offset="1" stop-color="#E55C5E"/>
</linearGradient>
<linearGradient id="paint5_linear_33_152" x1="28.8174" y1="28.72" x2="33.6639" y2="28.7237" gradientUnits="userSpaceOnUse">
<stop stop-color="#56C0E5"/>
<stop offset="0.494791" stop-color="#B977E6"/>
<stop offset="1" stop-color="#E55C5E"/>
</linearGradient>
</defs>



</svg>

<svg width="62" height="62" viewBox="0 0 62 62" fill="none" xmlns="http://www.w3.org/2000/svg"><path d="M11.4 1H1v11.304" stroke="url(#paint0_linear_33_152)"/><path d="M61 12.304V1H50.6" stroke="url(#paint1_linear_33_152)"/><path d="M50.6 61H61V49.696" stroke="url(#paint2_linear_33_152)"/><path d="M1 49.696V61h10.4" stroke="url(#paint3_linear_33_152)"/><path d="M30.522 36.737l-.676.733-.147.16c-.088.097-.166.183-.243.261l-.003.004h0l-1.521 1.535a2008.9 2008.9 0 01-3.563 3.593h0c-.305.306-.467.587-.483.931v.002c-.027.543.315 1.122.89 1.405.265.13.51.163.732.125.223-.039.46-.157.698-.393h0a253.119 253.119 0 003.95-3.993h0a2.14 2.14 0 01.293-.262.907.907 0 01.441-.173c.384-.035.668.212.861.415h0c.846.891 1.71 1.757 2.58 2.628.43.431.862.864 1.294 1.301.291.294.564.451.886.474.541.037 1.144-.322 1.418-.91.23-.493.156-1.005-.287-1.458l-7.12-6.378zm0 0l-.992-.103m.992.103l-.992-.103m0 0c-2.26-.237-4.238-.792-5.917-2.114l-.31.392.31-.392-.145-.114a5.96 5.96 0 01-.468-.39v-.002m6.53 2.62L23 34.014m0 0c-.328-.316-.47-.616-.495-.891-.026-.275.056-.599.317-.973h0M23 34.014l-.178-1.864m0 0v-.001m0 0h0m0 0c.199-.287.449-.45.72-.512.275-.062.613-.029.99.151h0m-1.71.36l1.71-.36m0 0l.004.002m-.004-.002l.004.002m0 0c.14.065.282.154.438.261 3.489 2.413 8.278 2.483 11.787.107l.013-.009m-12.238-.36l12.238.36m0 0l.012-.01m-.012.01l.012-.01m0 0c.3-.232.593-.398.913-.481.587-.151 1.103.056 1.413.566h0m-2.326-.084l2.326.085m0 0c.208.34.287.638.277.887-.01.24-.105.478-.328.707l-.001.001m.052-1.595l-.052 1.595m0 0c-.864.895-1.91 1.548-3.086 2.007h0m3.086-2.007l-3.086 2.007m0 0c-1.107.432-2.336.655-3.583.804l-.961.115m4.544-.92l-4.544.92m0 0l.65.718m-.65-.718l.65.718m0 0l.092.1c.13.145.217.24.323.348h0m-.415-.448l.415.448m0 0l1.857 1.875m-1.857-1.875l1.857 1.875m0 0c1.099 1.108 2.197 2.216 3.29 3.328l-3.29-3.328z" fill="url(#paint4_linear_33_152)" stroke="url(#paint4_linear_33_152)"/><path d="M35.13 23.584a4.185 4.185 0 00-4.184-4.207l4.184 4.207zm0 0a4.177 4.177 0 01-4.162 4.227 4.185 4.185 0 01-4.216-4.175 4.19 4.19 0 014.194-4.259l4.184 4.207zm-4.243 7.101c-3.84-.014-6.999-3.223-6.978-7.107h0c.023-3.93 3.184-7.088 7.065-7.078 3.883.01 7.015 3.211 6.997 7.189-.021 3.87-3.196 7.01-7.084 6.996z" fill="url(#paint5_linear_33_152)" stroke="url(#paint5_linear_33_152)"/><defs><linearGradient id="paint0_linear_33_152" x1=".573" y1="5.793" x2="11.913" y2="5.847" gradientUnits="userSpaceOnUse"><stop stop-color="#56C0E5"/><stop offset=".495" stop-color="#B977E6"/><stop offset="1" stop-color="#E55C5E"/></linearGradient><linearGradient id="paint1_linear_33_152" x1="56.59" y1=".535" x2="56.521" y2="12.862" gradientUnits="userSpaceOnUse"><stop stop-color="#56C0E5"/><stop offset=".495" stop-color="#B977E6"/><stop offset="1" stop-color="#E55C5E"/></linearGradient><linearGradient id="paint2_linear_33_152" x1="61.427" y1="56.207" x2="50.087" y2="56.153" gradientUnits="userSpaceOnUse"><stop stop-color="#56C0E5"/><stop offset=".495" stop-color="#B977E6"/><stop offset="1" stop-color="#E55C5E"/></linearGradient><linearGradient id="paint3_linear_33_152" x1="5.41" y1="61.465" x2="5.479" y2="49.138" gradientUnits="userSpaceOnUse"><stop stop-color="#56C0E5"/><stop offset=".495" stop-color="#B977E6"/><stop offset="1" stop-color="#E55C5E"/></linearGradient><linearGradient id="paint4_linear_33_152" x1="28.817" y1="28.72" x2="33.664" y2="28.724" gradientUnits="userSpaceOnUse"><stop stop-color="#56C0E5"/><stop offset=".495" stop-color="#B977E6"/><stop offset="1" stop-color="#E55C5E"/></linearGradient><linearGradient id="paint5_linear_33_152" x1="28.817" y1="28.72" x2="33.664" y2="28.724" gradientUnits="userSpaceOnUse"><stop stop-color="#56C0E5"/><stop offset=".495" stop-color="#B977E6"/><stop offset="1" stop-color="#E55C5E"/></linearGradient></defs></svg>
